src/assets/linkedin.svg

<svg width="21" height="21" viewBox="0 0 21 21" fill="none" xmlns="http://www.w3.org/2000/svg">
<path d="M19.4855 0H1.51453C0.67804 0 0 0.67804 0 1.51453V19.4855C0 20.322 0.67804 21 1.51453 21H19.4855C20.322 21 21 20.322 21 19.4855V1.51453C21 0.67804 20.322 0 19.4855 0V0ZM7.44882 15.873H4.89159V8.17957H7.44882V15.873ZM6.17029 7.12903H6.15363C5.2955 7.12903 4.74051 6.53831 4.74051 5.80003C4.74051 5.04508 5.31248 4.4707 6.18727 4.4707C7.06206 4.4707 7.60039 5.04508 7.61705 5.80003C7.61705 6.53831 7.06206 7.12903 6.17029 7.12903ZM16.6696 15.873H14.1127V11.7572C14.1127 10.7229 13.7425 10.0174 12.8172 10.0174C12.1108 10.0174 11.6901 10.4933 11.5052 10.9526C11.4376 11.117 11.4211 11.3467 11.4211 11.5767V15.873H8.86402C8.86402 15.873 8.89751 8.90135 8.86402 8.17957H11.4211V9.26889C11.7609 8.74466 12.3689 7.99901 13.7257 7.99901C15.4081 7.99901 16.6696 9.09858 16.6696 11.4616V15.873Z" fill="white"/>
</svg>

<svg xmlns="http://www.w3.org/2000/svg" fill="none" viewBox="0 0 21 21">
  <path fill="#fff" d="M19.49 0H1.5C.68 0 0 .68 0 1.51V19.5c0 .82.68 1.5 1.51 1.5H19.5c.83 0 1.51-.68 1.51-1.51V1.5A1.53 1.53 0 0 0 19.49 0ZM7.45 15.87H4.89V8.18h2.56v7.7ZM6.17 7.13h-.02c-.85 0-1.4-.6-1.4-1.33 0-.75.56-1.33 1.44-1.33.87 0 1.41.58 1.43 1.33 0 .74-.56 1.33-1.45 1.33Zm10.5 8.74h-2.56v-4.11c0-1.04-.37-1.74-1.3-1.74-.7 0-1.12.47-1.3.93-.07.17-.09.4-.09.63v4.3H8.86s.04-6.98 0-7.7h2.56v1.09c.34-.53.95-1.27 2.3-1.27 1.69 0 2.95 1.1 2.95 3.46v4.41Z"/>
</svg>
